img/favicon/favicon32.svg

<svg width="17" height="24" viewBox="0 0 17 24" fill="none" xmlns="http://www.w3.org/2000/svg">
<path d="M16.6319 13.4405C16.5458 11.1708 16.2015 8.90117 16.2015 6.63151C16.2015 4.78216 16.5458 2.84876 15.8572 1.08347C15.8572 0.915346 15.9432 0.663163 15.9432 0.495041C16.1154 -0.429633 13.1024 0.0747346 12.672 0.915347C12.4138 1.16753 12.2416 1.41971 12.3277 1.75596C12.3277 1.84002 12.4138 1.92408 12.4138 2.00814C11.8112 4.6981 11.0364 7.38806 10.1756 9.99396C9.83122 11.0027 9.4008 12.0114 9.05646 13.0202C8.53995 12.0955 8.02344 11.1708 7.59302 10.1621C6.38783 7.21994 5.35482 4.2778 3.89138 1.50378C4.06355 0.242856 1.13667 0.326917 0.534076 1.50378C-0.154601 2.93282 -0.0685163 4.36186 0.189738 5.95902C0.447992 7.72431 0.534076 9.40554 0.534076 11.1708C0.534076 14.5333 0.878415 17.8957 0.878415 21.2582C0.534076 21.5944 0.447991 22.0147 0.79233 22.435C0.964499 22.6032 1.13667 22.7713 1.30884 22.9394C2.0836 23.5278 4.3218 23.0235 4.3218 21.8466C4.3218 18.316 4.06355 14.8695 3.97746 11.3389C3.97746 11.0027 3.97746 10.6665 3.97746 10.3302C4.06355 10.4143 4.06355 10.5824 4.14963 10.6665C4.66614 12.0114 5.26873 13.3564 6.0435 14.6173C6.81826 15.8783 7.1626 17.2232 7.59302 18.5682C7.42085 18.7363 7.33477 18.9885 7.42085 19.1566C7.42085 19.3248 7.50694 19.4088 7.67911 19.4929C8.19561 19.9973 9.31472 19.7451 9.83122 19.4929C10.0895 19.4088 10.3477 19.2407 10.5199 19.1566C10.7782 18.9885 11.2947 18.5682 11.1225 18.1479C11.1225 18.0638 11.0364 17.9798 11.0364 17.8957C11.4668 16.8029 11.639 15.7101 11.8973 14.5333C12.1555 13.3564 12.5859 12.1796 13.0164 11.0027C13.1024 11.5071 13.1024 12.0955 13.1885 12.5999C13.3607 14.7855 13.1885 16.887 13.1885 19.0726C13.1885 19.8291 13.2746 20.4176 13.3607 21.1741C13.4468 21.4263 13.705 22.6872 13.6189 22.7713C13.1024 23.2756 13.2746 23.8641 13.9633 23.9481C14.7381 24.1163 15.7711 23.8641 16.3737 23.3597C17.4067 22.435 16.8902 20.9219 16.718 19.7451C16.2015 17.7276 16.6319 15.4579 16.6319 13.4405Z" fill="black"/>
</svg>

<svg width="17" height="24" fill="none" xmlns="http://www.w3.org/2000/svg"><path d="M16.632 13.44c-.086-2.27-.43-4.539-.43-6.808 0-1.85.344-3.783-.345-5.549 0-.168.086-.42.086-.588.172-.925-2.84-.42-3.271.42-.258.253-.43.505-.344.841 0 .084.086.168.086.252-.603 2.69-1.378 5.38-2.238 7.986-.345 1.009-.775 2.017-1.12 3.026-.516-.925-1.033-1.85-1.463-2.858C6.388 7.22 5.355 4.278 3.891 1.504 4.064.243 1.137.327.534 1.504-.155 2.933-.069 4.362.19 5.959c.258 1.765.344 3.447.344 5.212 0 3.362.344 6.725.344 10.087-.344.336-.43.757-.086 1.177l.517.504c.775.589 3.013.084 3.013-1.092 0-3.531-.258-6.978-.345-10.508V10.33c.087.084.087.252.173.336.516 1.345 1.119 2.69 1.893 3.951.775 1.261 1.12 2.606 1.55 3.951-.172.168-.258.42-.172.589 0 .168.086.252.258.336.517.504 1.636.252 2.152 0 .258-.084.517-.252.689-.336.258-.169.775-.589.603-1.01 0-.083-.087-.167-.087-.251.43-1.093.603-2.186.861-3.363s.689-2.353 1.12-3.53c.085.504.085 1.092.171 1.597.173 2.186 0 4.287 0 6.473 0 .756.087 1.345.173 2.101.086.252.344 1.513.258 1.597-.517.505-.344 1.093.344 1.177.775.168 1.808-.084 2.41-.588 1.034-.925.517-2.438.345-3.615-.517-2.017-.086-4.287-.086-6.305z" fill="#000"/></svg>
